!!!!SEGMENT: pl-wumfc--n2100--013_dobrzynski-ignacy-feliks--monbar-czyli-flibustierowie-partytura-fortepianowa-akt-ii-12-taniec-szermierzy.krn
!!!cenid: 18xx:4196
!!!COM: Dobrzyński, Ignacy Feliks
!!!COM-rismID: pe30020642
!!!CDT: 1807/02/15-1867/10/09
!!!CNT: Polish
!!!GTL: Monbar czyli Flibustierowie - partytura fortepianowa
!!!OTL: Akt II - 12. Taniec szermierzy
!!!OMV: 013
!!!PDT: 1863
!!!AGN:
!!!SMS-siglum: PL-Wumfc
!!!SMS-shelfmark: N2100
!!!SMS-shelfwork: 001-013 G
!!!SMS-variant:
!!!SMS-altvar:
!!!NIFC-rismSourceID: 1001123412
!!!NIFC-rismChildID: 1001123412
!!!NIFC-islandoraID: pl-wumfc:1659
!!!URL-pdf-islandora: https://repozytorium.nifc.pl/islandora/object/pl-wumfc%3A1659/datastream/PDF/view
!!!URL-scan: https://polish.musicsources.pl/pl/lokalizacje/galeria/druki-muzyczne/11863/102 @EN{Scan on Polish Music Sources Website} @PL{Skany w portalu Dziedzictwo Muzyki Polskiej w otwartym dostępie}
!!!ONB-nifc: Skany 0102-0103
!!!AIN: 2 piano
!!!key: c
**kern	**kern	**dynam
*part2	*part1	*part1
*staff2	*staff1	*
*I"PIANO.	*I"PIANO.	*
*I'	*I'	*
*Ipiano	*Ipiano	*
*ICklav	*ICklav	*
*clefF4	*clefG2	*
*k[b-e-a-]	*k[b-e-a-]	*
*kcancel	*kcancel	*
*c:	*c:	*
*M4/4	*M4/4	*
*met(c)	*met(c)	*
*>[A,B,B,C,C,D]	*>[A,B,B,C,C,D]	*
=1	=1	=1
*>A	*>A	*>A
!	!LO:TX:a:i:t=energico	!
!	!LO:TX:a:B:t=Vivace	!
2C 2CC/	2cc 2c/	ff
4r	4r	.
8.r	8.r	.
16C 16CC/	16cc 16c/	.
=2	=2	=2
2C 2CC/	2cc 2c/	.
4r	4r	.
8.r	8.r	.
16C 16CC/	16cc 16c/	.
=3	=3	=3
2C 2CC^>/	2cc 2c^>/	.
2C 2CC^>/	2cc 2c^>/	.
=4	=4	=4
2C 2CC^>/	2cc 2c^>/	.
2C 2CC^>/	2cc 2c^>/	.
=5||	=5||	=5||
!	!LO:TUP:a:problem:klamra łukowa	!
4C 4CC/	12c/L	.
.	12Bn/	.
.	12c/J	.
4E- 4EE-^>/	4e-^/	.
!	!LO:TUP:a:problem:klamra łukowa	!
4D 4DD/	12d/L	.
.	12c#X/	.
.	12d/J	.
4G 4GG^>/	4g^/	.
!!LO:LB:g=original
=6	=6	=6
*	*Xtuplet	*
!	!LO:TUP:a:problem:klamra łukowa	!
4E- 4EE-/	12e-/L	.
.	12d/	.
.	12e-/J	.
4C 4CC/	4c/	.
!	!LO:TUP:a:problem:klamra łukowa	!
4D 4DD/	12d/L	.
.	12c#X/	.
.	12d/J	.
4GG 4GGG/	4G/	.
=7	=7	=7
!	!LO:TUP:a:problem:klamra łukowa	!
4C 4CC/	12c/L	.
.	12Bn/	.
.	12c/J	.
4E- 4EE-/	4e-/	.
!	!LO:TUP:a:problem:klamra łukowa	!
4D 4DD/	12d/L	.
.	12c#X/	.
.	12d/J	.
4G 4GG/	4g/	.
=8	=8	=8
!	!LO:TUP:a:problem:klamra łukowa	!
4An 4AAn\	12an/L	.
.	12g#X/	.
.	12a/J	.
4d 4D\	4dd\	.
!	!LO:SIC:v:s=4gn/	!
4G 4GG/	4g#/	.
!	!LO:SIC:v:s=4gg 4dd 4bn 4g\	!
4GG 4GGG/	4gg 4dd 4bn 4g#\	sf
=9	=9	=9
*Xtuplet	*	*
!LO:TUP:a:problem:klamra łukowa	!LO:TUP:a:problem:klamra łukowa	!
12C/L	12c/L	.
12BBn/	12Bn/	.
12C/J	12c/J	.
4E-\	4e-/	.
!LO:TUP:a:problem:klamra łukowa	!LO:TUP:a:problem:klamra łukowa	!
12D/L	12d/L	.
12C#X/	12c#X/	.
12D/J	12d/J	.
4G\	4g/	.
!!LO:LB:g=original
=10	=10	=10
!LO:TUP:a:problem:klamra łukowa	!LO:TUP:a:problem:klamra łukowa	!
12E-\L	12e-/L	.
12D\	12d/	.
12E-\J	12e-/J	.
4C/	4c/	.
!LO:TUP:a:problem:klamra łukowa	!LO:TUP:a:problem:klamra łukowa	!
12D/L	12d/L	.
12C#X/	12c#X/	.
12D/J	12d/J	.
4GG/	4G/	.
=11	=11	=11
!LO:TUP:a:problem:klamra łukowa	!LO:TUP:a:problem:klamra łukowa	!
12C/L	12c/L	.
12BBn/	12Bn/	.
12C/J	12c/J	.
4E-\	4e-/	.
!LO:TUP:a:problem:klamra łukowa	!LO:TUP:a:problem:klamra łukowa	!
12D/L	12d/L	.
12C#X/	12c#X/	.
12D/J	12d/J	.
4G\	4g/	.
=12	=12	=12
!LO:TUP:a:problem:klamra łukowa	!LO:TUP:a:problem:klamra łukowa	!
12An\L	12an/L	.
12G#X\	12g#X/	.
12A\J	12a/J	.
4d\	4dd\	.
!LO:SIC:v:s=2Gn\	!LO:SIC:v:s=2gn^>/	!
2G#\	2g#^>/	.
=13	=13	=13
!	!LO:TX:a:t=Trom.\nCor.	!
2r	(>2g 2e-/	mf
*tuplet	*	*
!LO:TX:a:rj:t=Cello	!	!
!LO:TUP:a:problem:klamra łukowa	!	!
12B-^<\L	2b- 2d/	.
12An\	.	.
12B-\J	.	.
4BB-/	.	.
!!LO:LB:g=original
=14	=14	=14
2r	2e- 2c/	.
*Xtuplet	*	*
!LO:TUP:a:problem:klamra łukowa	!	!
12G^<\L	2g 2B-/)	.
12F#X\	.	.
12G\J	.	.
4GG/	.	.
*	*clefF4	*
=15	=15	=15
2r	(2c 2A-\	.
!LO:TUP:a:problem:klamra łukowa	!	!
12E-^<\L	2e- 2G\)	.
12D\	.	.
12E-\J	.	.
4EE-/	.	.
=16	=16	=16
!	!LO:S:s=1:note:problem:note-level slur	!
!	!LO:S:s=2:note:problem:note-level slur	!
!LO:TUP:a:problem:klamra łukowa	!LO:S:s=3:note:problem:note-level slur	!
12GG/L	(>2d (>2Bn (<2F\	.
12FF#X/	.	.
12GG/J	.	.
4GGG/	.	.
!	!LO:S:s=1:note:problem:note-level slur	!
!	!LO:S:s=2:note:problem:note-level slur	!
!LO:TUP:a:problem:klamra łukowa	!LO:S:s=3:note:problem:note-level slur	!
12CC/L	4c)) 4E-\)	.
12BBBn/	.	.
12CC/J	.	.
4CCC/	4r	.
*	*clefG2	*
=17	=17	=17
*tuplet	*	*
!LO:TX:a:t=Fag.	!	!
!LO:TUP:a:problem:klamra łukowa	!LO:TX:a:t=Ob.\nClar.	!
12e-\L	(2gg 2ee-\	.
12d\	.	.
12e-\J	.	.
4E-\	.	.
*clefG2	*	*
*Xtuplet	*	*
!LO:TX:a:t=Vni	!	!
!LO:TUP:a:problem:klamra łukowa	!	!
12b-/L	2bb- 2dd\)	.
12an/	.	.
12b-/J	.	.
4B-/	.	.
*clefF4	*	*
!!LO:LB:g=original
=18	=18	=18
*tuplet	*	*
!LO:TUP:a:problem:klamra łukowa	!	!
12c\L	(2ee- 2cc\	.
12Bn\	.	.
12c\J	.	.
4C/	.	.
*clefG2	*	*
*Xtuplet	*	*
!LO:TUP:a:problem:klamra łukowa	!	!
12g/L	2gg 2bn\)	.
12f#X/	.	.
12g/J	.	.
4G/	.	.
*clefF4	*	*
=19	=19	=19
*tuplet	*	*
!LO:TUP:a:problem:klamra łukowa	!	!
12A-\L	(2cc 2a-\	.
12G\	.	.
12A-\J	.	.
4AA-/	.	.
!LO:TUP:a:problem:klamra łukowa	!	!
12e-\L	2ee- 2g\)	.
12d\	.	.
12e-\J	.	.
4E-\	.	.
=20	=20	=20
!	!LO:S:s=1:note:problem:note-level slur	!
!	!LO:S:s=2:note:problem:note-level slur	!
!LO:TUP:a:problem:klamra łukowa	!LO:S:s=3:note:problem:note-level slur	!
12G\L	(>2dd (>2bn (<2f/	.
12F#X\	.	.
12G\J	.	.
4GG/	.	.
*Xtuplet	*	*
!	!LO:S:s=1:note:problem:note-level slur	!
!	!LO:S:s=2:note:problem:note-level slur	!
!LO:TUP:a:problem:klamra łukowa	!LO:S:s=3:note:problem:note-level slur	!
12C/L	4cc)) 4e-/)	.
12BBn/	.	.
12C/J	.	.
4CC/	4r	.
=21	=21	=21
*	*tuplet	*
!	!LO:TUP:a:problem:klamra łukowa	!LO:DY:b:rj
4C 4CC/	12c/L	ff
.	12Bn/	.
.	12c/J	.
4E- 4EE-/	4e-^>/	.
*	*Xtuplet	*
!	!LO:TUP:a:problem:klamra łukowa	!
4D 4DD/	12d/L	.
.	12c#X/	.
.	12d/J	.
4G 4GG/	4g^>/	.
!!LO:PB:g=original
=22	=22	=22
!	!LO:TUP:a:problem:klamra łukowa	!
4E- 4EE-/	12e-/L	.
.	12d/	.
.	12e-/J	.
4C 4CC/	4c/	.
!	!LO:TUP:a:problem:klamra łukowa	!
4D 4DD/	12d/L	.
.	12c#X/	.
.	12d/J	.
4GG 4GGG/	4G/	.
=23	=23	=23
!	!LO:TUP:a:problem:klamra łukowa	!
4C 4CC/	12c/L	.
.	12Bn/	.
.	12c/J	.
4E- 4EE-/	4e-/	.
!	!LO:TUP:a:problem:klamra łukowa	!
4D 4DD/	12d/L	.
.	12c#X/	.
.	12d/J	.
4G 4GG/	4g/	.
=24	=24	=24
!	!LO:TUP:a:problem:klamra łukowa	!
4An 4AAn\	12an/L	.
.	12g#X/	.
.	12a/J	.
4d 4D\	4dd\	.
!	!LO:SIC:v:s=4gn/	!
4G 4GG/	4g#/	.
!	!LO:SIC:v:s=4gg 4dd 4bn 4g\	!
4GG 4GGG/	4gg 4dd 4bn 4g#\	sf
=25	=25	=25
!LO:TUP:a:problem:klamra łukowa	!LO:TUP:a:problem:klamra łukowa	!
12C/L	12c/L	.
12BBn/	12Bn/	.
12C/J	12c/J	.
4E-\	4e-/	.
!LO:TUP:a:problem:klamra łukowa	!LO:TUP:a:problem:klamra łukowa	!
12D\L	12d/L	.
12C#X\	12c#X/	.
12D\J	12d/J	.
4G\	4g/	.
!!LO:LB:g=original
=26	=26	=26
!LO:TUP:a:problem:klamra łukowa	!LO:TUP:a:problem:klamra łukowa	!
12E-\L	12e-/L	.
12D\	12d/	.
12E-\J	12e-/J	.
4C/	4c/	.
!LO:TUP:a:problem:klamra łukowa	!LO:TUP:a:problem:klamra łukowa	!
12D\L	12d/L	.
12C#X\	12c#X/	.
12D\J	12d/J	.
4GG/	4G/	.
=27	=27	=27
!LO:TUP:a:problem:klamra łukowa	!LO:TUP:a:problem:klamra łukowa	!
12C/L	12c/L	.
12BBn/	12Bn/	.
12C/J	12c/J	.
4E-\	4e-/	.
!LO:TUP:a:problem:klamra łukowa	!LO:TUP:a:problem:klamra łukowa	!
12F\L	12f/L	.
12En\	12en/	.
12F\J	12f/J	.
4A-\	4a-/	.
=28	=28	=28
!LO:TUP:a:problem:klamra łukowa	!	!
12G\L	4g/	.
12F#X\	.	.
12G\J	.	.
4GG/	4bbn 4gg 4ff 4dd\	.
4C 4CC/	4ccc 4gg 4ee- 4cc\	.
4r	4r	.
=29!|:	=29!|:	=29!|:
*>B	*>B	*>B
*k[b-e-a-d-]	*k[b-e-a-d-]	*
*A-:	*A-:	*
*tuplet	*	*
!LO:TUP:a	!	!
12A-L 12E- 12C 12AA-'\	2r	mf
12A- 12E- 12C 12AA-'\	.	.
12A-J 12E- 12C 12AA-'\	.	.
4A- 4E- 4C 4AA-\	.	.
*	*tuplet	*
!	!LO:TX:a:t=Flau	!
!	!LO:TUP:a:problem:klamra łukowa	!
2A- 2F 2D-^<\	12dd-'\L	.
.	12ff'\	.
.	12aa-'\J	.
.	4ddd-\	.
!!LO:LB:g=original
=30	=30	=30
!LO:TUP:a	!	!
12d-L 12G 12E-'\	2r	.
12d- 12G 12E-'\	.	.
12d-J 12G 12E-'\	.	.
4d- 4G 4E-\	.	.
!	!LO:TX:a:rj:t=Clar	!
!	!LO:TUP:a	!
2c 2A-^<\	12aa-'\L	.
.	12ccc'\	.
.	12eee-'\J	.
.	4aaa-\	.
=31	=31	=31
*tremolo	*	*
!LO:TX:t=P:problem:LO:N:vis=4.	!	!
!LO:TX:a:Bi:t=3:problem:cyfra	!	!
!LO:TX:t=...	!	!
12A-L 12F 12Dn 12BB-'y\	4r	.
12A- 12F 12D 12BB-'\	.	.
12A-J 12F 12D 12BB-'\	.	.
*	*Xtuplet	*
!	!LO:TX:a:t=Flau	!
4A- 4F 4D 4BB-\	12bb-\L	.
.	12aan\	.
.	12ccc\J	.
!LO:TX:t=P:problem:LO:N:vis=4.	!	!
!LO:TX:a:Bi:t=3:problem:cyfra	!	!
!LO:TX:t=...	!	!
12GL 12E-'y\	[4bb-\	.
12G 12E-'\	.	.
12GJ 12E-'\	.	.
4G 4E-\	12bb-\L]	.
.	12aa\	.
.	12ccc\J	.
=32	=32	=32
4A- 4F 4Dn 4BB-\	12bb-'\L	.
.	12ccc'\	.
.	12bb-'\J	.
4A- 4F 4D 4BB-\	12aa-'\L	.
.	12gg'\	.
.	12ff'\J	.
4G 4E-\	4ee-\	.
4E- 4EE-/	4eee- 4gg 4ee-\	sf
=33	=33	=33
!LO:TX:t=P:problem:LO:N:vis=4.	!	!
!LO:TX:a:Bi:t=3:problem:cyfra	!	!
!LO:TX:t=...	!	!
12A-L 12E- 12C 12AA-'y\	2r	.
12A- 12E- 12C 12AA-'\	.	.
12A-J 12E- 12C 12AA-'\	.	.
4A- 4E- 4C 4AA-\	.	.
*	*tuplet	*
!	!LO:TUP:a	!
2A- 2F 2D-^<\	12dd-'\L	.
.	12ff'\	.
.	12aa-'\J	.
.	4ddd-\	.
!!LO:LB:g=original
=34	=34	=34
!LO:TX:t=P:problem:LO:N:vis=4.	!	!
!LO:TX:a:Bi:t=3:problem:cyfra	!	!
!LO:TX:t=...	!	!
12d-L 12G 12E-'y\	2r	.
12d- 12G 12E-'\	.	.
12d-J 12G 12E-'\	.	.
4d- 4G 4E-\	.	.
!	!LO:TUP:a	!
2c 2A-^<\	12aa-'\L	.
.	12ccc'\	.
.	12eee-'\J	.
.	4aaa-\	.
=35	=35	=35
!LO:TX:t=P:problem:LO:N:vis=4.	!	!
!LO:TX:a:Bi:t=3:problem:cyfra	!	!
!LO:TX:t=...	!	!
12G-XL 12E- 12C 12AA-'y\	4r	.
12G- 12E- 12C 12AA-'\	.	.
12G-J 12E- 12C 12AA-'\	.	.
!	!LO:TUP:a	!
4G- 4E- 4C 4AA-\	12aa-'\L	.
.	12gg'\	.
.	12bb-'\J	.
!LO:TX:t=P:problem:LO:N:vis=4.	!	!
!LO:TX:a:Bi:t=3:problem:cyfra	!	!
!LO:TX:t=...	!	!
12FL 12D-'y\	(4aa-\	.
12F 12D-'\	.	.
12FJ 12D-'\	.	.
4d- 4A- 4F 4D-\	4fff\)	.
=36	=36	=36
*	*Xtuplet	*
4d- 4G 4E-\	12eee-\L	.
.	12fff\	.
.	12eee-\J	.
4d- 4G 4E-\	12ddd-\L	.
.	12ccc\	.
.	12bb-\J	.
4c 4A-\	4aa-\	.
4r	4r	.
=37:|!|:	=37:|!|:	=37:|!|:
*>C	*>C	*>C
!LO:TX:t=P:problem:LO:N:vis=4.	!	!
!LO:TX:a:Bi:t=3:problem:cyfra	!	!
!LO:TX:t=...	!	!
12e-L 12c 12An 12F'y\	4r	mf
12e- 12c 12A 12F'\	.	.
12e-J 12c 12A 12F'\	.	.
*Xtremolo	*tuplet	*
!	!LO:TX:a:rj:t=Flau	!
!	!LO:TUP:a	!
4e- 4c\	(12ff\L	.
.	12een\	.
.	12gg-X\J	.
*Xtuplet	*Xtuplet	*
12d-L 12B-\	12ff\L	.
12d- 12B-\	12bb-\	.
12d-J 12B-\	12ddd-\J)	.
4d- 4B-\	[4fff^<\	.
!!LO:LB:g=original
=38	=38	=38
4e- 4An 4F\	(12fff\L]	.
.	12eee-\	.
.	12ddd-\J	.
4e- 4A 4F\	12ccc\L	.
.	12ddd-\	.
.	12eee-\J)	.
4d- 4B-\	2ddd-^<\	.
4B- 4F 4D- 4BB-\	.	.
=39	=39	=39
!	!LO:TX:a:rj:t=Ob	!
4B- 4En 4C\	(12ccc\L	.
.	12bbn\	.
.	12ccc\J	.
4B- 4E 4C\	12gg\L	.
.	12aa-\	.
!	!LO:SIC:v:s=12bb-\J)	!
.	12bb\J)	.
4A- 4F\	(4aa-\	.
4G 4D- 4BB-\	12gg\L	.
.	12aa-\	.
.	12gg\J)	.
=40	=40	=40
4A- 4F 4C\	([4cc^<\	.
*	*tuplet	*
!	!LO:TUP:a	!
4B- 4En 4C\	12cc\L]	.
.	12dd-\	.
.	12cc\J)	.
4A- 4F\	4f/	.
4e-X 4d- 4B- 4G\	4r	.
=41	=41	=41
*tremolo	*	*
!LO:TX:t=P:problem:LO:N:vis=4.	!	!
!LO:TX:a:Bi:t=3:problem:cyfra	!	!
!LO:TX:t=...	!	!
12e-L 12c 12A-'y\	2r	.
12e- 12c 12A-'\	.	.
12e-J 12c 12A-'\	.	.
4e- 4c 4A-\	.	.
!	!LO:TUP:a	!
2d- 2A- 2F 2D-\	12dd-'\L	.
.	12ff'\	.
.	12aa-'\J	.
.	4ddd-'\	.
!!LO:PB:g=original
=42	=42	=42
!LO:TX:t=P:problem:LO:N:vis=4.	!	!
!LO:TX:a:Bi:t=3:problem:cyfra	!	!
!LO:TX:t=...	!	!
12d-L 12G 12E-'y\	2r	.
12d- 12G 12E-'\	.	.
12d-J 12G 12E-'\	.	.
4d- 4G 4E-\	.	.
!	!LO:TUP:a	!
2c 2A-\	12aa-'\L	.
.	12ccc'\	.
.	12eee-'\J	.
.	4aaa-^\	.
=43	=43	=43
!LO:TX:t=P:problem:LO:N:vis=4.	!	!
!LO:TX:a:Bi:t=3:problem:cyfra	!	!
!LO:TX:t=...	!	!
12G-XL 12E- 12C 12AA-'y\	4r	.
12G- 12E- 12C 12AA-'\	.	.
12G-J 12E- 12C 12AA-'\	.	.
!	!LO:TUP:a:klamra łukowa	!
4G- 4E- 4C 4AA-\	12aa-\L	.
.	12gg\	.
.	12bb-\J	.
!LO:TX:t=P:problem:LO:N:vis=4.	!	!
!LO:TX:a:Bi:t=3:problem:cyfra	!	!
!LO:TX:t=...	!	!
12FL 12D-'y\	(4aa-\	.
12F 12D-'\	.	.
12FJ 12D-'\	.	.
*Xtremolo	*	*
4B- 4F 4D-\	(4fff\)	.
=44	=44	=44
*	*Xtuplet	*
4d- 4B- 4E-\	12eee-\L)	.
.	12ee-'\	.
.	12een'\J	.
4d- 4B- 4E-\	12ff'\L	.
.	12ff#X'\	.
.	12gg'\J	.
4c 4A-\	4aa-'\	.
4r	4r	.
=45:|!	=45:|!	=45:|!
*>D	*>D	*>D
*k[b-e-a-]	*k[b-e-a-]	*
*c:	*c:	*
*	*tuplet	*
!!LO:TX:t=P:problem:znak przykluczowy dn w źródle wpisany po belomach
!	!LO:TUP:a:problem:klamra łukowa	!
4C 4CC/	12c/L	.
.	12Bn/	.
.	12c/J	.
4E- 4EE-^>/	4e-^/	.
!	!LO:TUP:a:problem:klamra łukowa	!
4D 4DD/	12d/L	.
.	12c#X/	.
.	12d/J	.
4G 4GG^>/	4g^/	.
!!LO:LB:g=original
=46	=46	=46
*	*Xtuplet	*
!	!LO:TUP:a:problem:klamra łukowa	!
4E- 4EE-/	12e-/L	.
.	12d/	.
.	12e-/J	.
4C 4CC/	4c/	.
!	!LO:TUP:a:problem:klamra łukowa	!
4D 4DD/	12d/L	.
.	12c#X/	.
.	12d/J	.
4GG 4GGG/	4G/	.
=47	=47	=47
!	!LO:TUP:a:problem:klamra łukowa	!
4C 4CC/	12c/L	.
.	12Bn/	.
.	12c/J	.
4E- 4EE-/	4e-/	.
!	!LO:TUP:a:problem:klamra łukowa	!
4D 4DD/	12d/L	.
.	12c#X/	.
.	12d/J	.
4G 4GG/	4g/	.
=48	=48	=48
!	!LO:TUP:a:problem:klamra łukowa	!
4An 4AAn\	12an/L	.
.	12g#X/	.
.	12a/J	.
4d 4D\	4dd\	.
!	!LO:SIC:v:s=4gn/	!
4G 4GG/	4g#/	.
!	!LO:SIC:v:s=4gg 4dd 4bn 4g\	!
4GG 4GGG/	4gg 4dd 4bn 4g#\	sf
=49	=49	=49
!LO:TUP:a:problem:klamra łukowa	!LO:TUP:a:problem:klamra łukowa	!
12C/L	12c/L	.
12BBn/	12Bn/	.
12C/J	12c/J	.
4E-\	4e-/	.
!LO:TUP:a:problem:klamra łukowa	!LO:TUP:a:problem:klamra łukowa	!
12D/L	12d/L	.
12C#X/	12c#X/	.
12D/J	12d/J	.
4G\	4g/	.
!!LO:LB:g=original
=50	=50	=50
!LO:TUP:a:problem:klamra łukowa	!LO:TUP:a:problem:klamra łukowa	!
12E-\L	12e-/L	.
12D\	12d/	.
12E-\J	12e-/J	.
4C/	4c/	.
!LO:TUP:a:problem:klamra łukowa	!LO:TUP:a:problem:klamra łukowa	!
12D/L	12d/L	.
12C#X/	12c#X/	.
12D/J	12d/J	.
4GG/	4G/	.
=51	=51	=51
!LO:TUP:a:problem:klamra łukowa	!LO:TUP:a:problem:klamra łukowa	!
12C/L	12c/L	.
12BBn/	12Bn/	.
12C/J	12c/J	.
4E-\	4e-/	.
!LO:TUP:a:problem:klamra łukowa	!LO:TUP:a:problem:klamra łukowa	!
12D/L	12d/L	.
12C#X/	12c#X/	.
12D/J	12d/J	.
4G\	4g/	.
=52	=52	=52
!LO:TUP:a:problem:klamra łukowa	!LO:TUP:a:problem:klamra łukowa	!
12An\L	12an/L	.
12G#X\	12g#X/	.
12A\J	12a/J	.
4d\	4dd\	.
!LO:SIC:v:s=2Gn\	!LO:SIC:v:s=2gn^/	!
2G#\	2g#^/	.
=53	=53	=53
!	!LO:TX:a:t=Trom\nCor	!
2r	(>2g 2e-/	.
*tuplet	*	*
!LO:TX:a:rj:t=Cello	!	!
!LO:TUP:a:klamra łukowa	!	!
12B-^<\L	2b- 2d/	.
12An\	.	.
12B-\J	.	.
4BB-/	.	.
!!LO:LB:g=original
=54	=54	=54
2r	2e- 2c/	.
*Xtuplet	*	*
!LO:TUP:a:klamra łukowa	!	!
12G^<\L	2g 2Bn/)	.
12F#X\	.	.
12G\J	.	.
4GG/	.	.
*	*clefF4	*
=55	=55	=55
2r	(2c 2A-\	.
!LO:TUP:a:klamra łukowa	!	!
12E-^<\L	2e- 2G\)	.
12D\	.	.
12E-\J	.	.
4EE-/	.	.
=56	=56	=56
!	!LO:S:s=1:note:problem:note-level slur	!
!	!LO:S:s=2:note:problem:note-level slur	!
!LO:TUP:a:klamra łukowa	!LO:S:s=3:note:problem:note-level slur	!
12GG/L	(>2d (>2Bn (<2F\	.
12FF#X/	.	.
12GG/J	.	.
4GGG/	.	.
!	!LO:S:s=1:note:problem:note-level slur	!
!	!LO:S:s=2:note:problem:note-level slur	!
!LO:TUP:a:klamra łukowa	!LO:S:s=3:note:problem:note-level slur	!
12CC/L	4c)) 4E-\)	.
12BBBn/	.	.
12CC/J	.	.
4CCC/	4r	.
*	*clefG2	*
=57	=57	=57
*tuplet	*	*
!LO:TX:a:t=Fag	!LO:TX:a:rj:t=Ob\nClar	!
!LO:TUP:a:problem:klamra łukowa	!	!
12e-\L	(2gg 2ee-\	.
12d\	.	.
12e-\J	.	.
4E-\	.	.
*clefG2	*	*
*Xtuplet	*	*
!LO:TX:a:t=Vni	!	!
!LO:TUP:a:problem:klamra łukowa	!	!
12b-/L	2bb- 2dd\)	.
12an/	.	.
12b-/J	.	.
4B-/	.	.
*clefF4	*	*
!!LO:LB:g=original
=58	=58	=58
*tuplet	*	*
!LO:TUP:b:problem:klamra łukowa	!	!
12c\L	(2ee- 2cc\	.
12Bn\	.	.
12c\J	.	.
4C/	.	.
*clefG2	*	*
*Xtuplet	*	*
!LO:TUP:a:problem:klamra łukowa	!	!
12g/L	2gg 2bn\)	.
12f#X/	.	.
12g/J	.	.
4G/	.	.
*clefF4	*	*
=59	=59	=59
*tuplet	*	*
!LO:TUP:a:problem:klamra łukowa	!	!
12A-\L	(2cc 2a-\	.
12G\	.	.
12A-\J	.	.
4AA-/	.	.
!LO:TUP:a:problem:klamra łukowa	!	!
12e-\L	2ee- 2g\)	.
12d\	.	.
12e-\J	.	.
4E-\	.	.
=60	=60	=60
!	!LO:S:s=1:note:problem:note-level slur	!
!	!LO:S:s=2:note:problem:note-level slur	!
!LO:TUP:a:problem:klamra łukowa	!LO:S:s=3:note:problem:note-level slur	!
12G\L	(>2dd (>2bn (<2f/	.
12F#X\	.	.
12G\J	.	.
4GG/	.	.
*Xtuplet	*	*
!	!LO:S:s=1:note:problem:note-level slur	!
!	!LO:S:s=2:note:problem:note-level slur	!
!LO:TUP:a:problem:klamra łukowa	!LO:S:s=3:note:problem:note-level slur	!
12C/L	4cc)) 4e-/)	.
12BBn/	.	.
12C/J	.	.
4CC/	4r	.
=61	=61	=61
*	*tuplet	*
!	!LO:TUP:a:problem:klamra łukowa	!
4C 4CC/	12c/L	ff
.	12Bn/	.
.	12c/J	.
4E- 4EE-/	4e-^/	.
*	*Xtuplet	*
!	!LO:TUP:a:problem:klamra łukowa	!
4D 4DD/	12d/L	.
.	12c#X/	.
.	12d/J	.
4G 4GG/	4g^/	.
!!LO:PB:g=original
=62	=62	=62
!	!LO:TUP:a:problem:klamra łukowa	!
4E- 4EE-/	12e-/L	.
.	12d/	.
.	12e-/J	.
4C 4CC/	4c/	.
!	!LO:TUP:a:problem:klamra łukowa	!
4D 4DD/	12d/L	.
.	12c#X/	.
.	12d/J	.
4GG 4GGG/	4G/	.
=63	=63	=63
!	!LO:TUP:a:problem:klamra łukowa	!
4C 4CC/	12c/L	.
.	12Bn/	.
.	12c/J	.
4E- 4EE-/	4e-/	.
!	!LO:TUP:a:problem:klamra łukowa	!
4D 4DD/	12d/L	.
.	12c#X/	.
.	12d/J	.
4G 4GG/	4g/	.
=64	=64	=64
!	!LO:TUP:a:problem:klamra łukowa	!
4An 4AAn\	12an/L	.
.	12g#X/	.
.	12a/J	.
4d 4D\	4dd\	.
!	!LO:SIC:v:s=4gn/	!
4G 4GG/	4g#/	.
!	!LO:SIC:v:s=4gg 4dd 4bn 4g\	!
4GG 4GGG/	4gg 4dd 4bn 4g#\	sf
=65	=65	=65
*	*tuplet	*
!LO:TUP:a:problem:klamra łukowa	!LO:TUP:a:problem:klamra łukowa	!
12C/L	12c/L	.
12BBn/	12Bn/	.
12C/J	12c/J	.
4E-\	4e-/	.
*	*Xtuplet	*
!LO:TUP:a:problem:klamra łukowa	!LO:TUP:a:problem:klamra łukowa	!
12D/L	12d/L	.
12C#X/	12c#X/	.
12D/J	12d/J	.
4G\	4g/	.
!!LO:LB:g=original
=66	=66	=66
!LO:TUP:a:problem:klamra łukowa	!LO:TUP:a:problem:klamra łukowa	!
12E-\L	12e-/L	.
12D\	12d/	.
12E-\J	12e-/J	.
4C/	4c/	.
!LO:TUP:a:problem:klamra łukowa	!LO:TUP:a:problem:klamra łukowa	!
12D\L	12d/L	.
12C#X\	12c#X/	.
12D\J	12d/J	.
4GG/	4G/	.
=67	=67	=67
!LO:TUP:a:problem:klamra łukowa	!LO:TUP:a:problem:klamra łukowa	!
12C/L	12c/L	.
12BBn/	12Bn/	.
12C/J	12c/J	.
4E-\	4e-/	.
!LO:TUP:a:problem:klamra łukowa	!LO:TUP:a:problem:klamra łukowa	!
12F\L	12f/L	.
12En\	12en/	.
12F\J	12f/J	.
4A-\	4a-/	.
=68	=68	=68
!LO:TUP:a:problem:klamra łukowa	!	!
12G\L	4g/	.
12F#X\	.	.
12G\J	.	.
4GG/	4bbn 4gg 4ff 4dd\	.
4C 4CC/	4ccc 4gg 4ee- 4cc\	.
4r	4r	.
!!LO:LB:g=original
==69	==69	==69
*	*8va	*
*	*tuplet	*
!	!LO:TX:a:B:t=CODA.	!
!	!LO:TUP:a:problem:klamra łukowa	!
2r	12cccc\L	mf
.	12bbbn\	.
.	12cccc\J	.
.	4ccc\	.
*clefG2	*	*
!LO:S:s=1:note:problem:note-level slur	!	!
!LO:S:s=2:note:problem:note-level slur	!	!
!LO:S:s=3:note:problem:note-level slur	!	!
(>2b- (>2g (<2en [2c^>/	2r	.
=70	=70	=70
*	*Xtuplet	*
!LO:S:s=1:note:problem:note-level slur	!	!
!LO:S:s=2:note:problem:note-level slur	!	!
!LO:S:s=3:note:problem:note-level slur	!	!
4a-)) 4f) 4c/]	(12fff\L	.
.	12eeen\	.
.	12fff\J	.
4r	4ff/)	.
*clefF4	*	*
*	*X8va	*
!LO:S:s=1:note:problem:note-level slur	!	!
!LO:S:s=2:note:problem:note-level slur	!	!
!LO:S:s=3:note:problem:note-level slur	!	!
(>2Bn (>2A- (<2F [2C^\	2r	.
=71	=71	=71
!LO:S:s=1:note:problem:note-level slur	!	!
!LO:S:s=2:note:problem:note-level slur	!	!
!LO:S:s=3:note:problem:note-level slur	!	!
4c) 4G) 4E-) 4C\]	(12ccc\L	.
.	12bbn\	.
.	12ccc\J	.
4r	4cc\)	.
!LO:S:s=1:note:problem:note-level slur	!	!
!LO:S:s=2:note:problem:note-level slur	!	!
!LO:S:s=3:note:problem:note-level slur	!	!
(>2B- (>2G (<2En [2C^\	2r	.
=72	=72	=72
4A-) 4F)) 4C\]	(12ff\L	.
.	12een\	.
.	12ff\J	.
4r	4f/)	.
!LO:S:s=1:note:problem:note-level slur	!	!
!LO:S:s=2:note:problem:note-level slur	!	!
!LO:S:s=3:note:problem:note-level slur	!	!
(>2BBn (<2AA- (<2FF [2CC/	2r	.
!!LO:LB:g=original
=73	=73	=73
*	*tuplet	*
!LO:S:s=1:note:problem:note-level slur	!	!
!LO:S:s=2:note:problem:note-level slur	!	!
!LO:S:s=3:note:problem:note-level slur	!	!
4C) 4GG) 4EE-) 4CC/]	(12c/L	ff
.	12Bn/	.
.	12c/J	.
4E- 4EE-/	4e-/)	.
4AA- 4AAA-/	(12A-/L	.
.	12G/	.
.	12A-/J	.
4C 4CC/	4c/)	.
=74	=74	=74
*	*Xtuplet	*
4FF 4FFF/	(12f/L	.
.	12en/	.
.	12f/J	.
4AA- 4AAA-/	4a-/)	.
!	!LO:TUP:a:problem:klamra łukowa	!
4GG 4GGG/	12g/L	.
.	12f#X/	.
.	12g/J	.
4GG 4GGG/	4gg 4dd 4bn\	sf
=75	=75	=75
4C 4CC/	(12c/L	.
.	12Bn/	.
.	12c/J	.
4E- 4EE-/	4e-/)	.
4AA- 4AAA-/	(12A-/L	.
.	12G/	.
.	12A-/J	.
4C 4CC/	4c/)	.
=76	=76	=76
4FF 4FFF/	(12f/L	.
.	12en/	.
.	12f/J	.
4AA- 4AAA-/	4a-/)	.
!	!LO:TUP:a:problem:klamra łukowa	!
4GG 4GGG/	12g/L	.
.	12f#X/	.
.	12g/J	.
4GG 4GGG/	4gg 4dd 4bn\	sf
!!LO:LB:g=original
=77	=77	=77
*	*tuplet	*
!	!LO:TUP:a:problem:klamra łukowa	!
4C 4CC/	12c/L	.
.	12Bn/	.
.	12c/J	.
4E- 4EE-/	4e-/	.
!	!LO:S:s=1:note:problem:note-level slur	!
!	!LO:S:s=2:note:problem:note-level slur	!
!	!LO:S:s=3:note:problem:note-level slur	!
(4A- 4AA-^\	(>2bn (>2f (<2d/	fz
4G 4GG/)	.	.
=78	=78	=78
*	*Xtuplet	*
!	!LO:S:s=2:note:problem:note-level slur	!
!	!LO:S:s=3:note:problem:note-level slur	!
!	!LO:S:s=4:note:problem:note-level slur	!
4C 4CC/	(12ccL) 12e-) 12c/)	.
.	12Bn/	.
.	12c/J	.
4E- 4EE-/	4e-/)	.
!	!LO:S:s=1:note:problem:note-level slur	!
!	!LO:S:s=2:note:problem:note-level slur	!
!	!LO:S:s=3:note:problem:note-level slur	!
(4A- 4AA-^\	(>2bn (>2f (<2d/	fz
4G 4GG/)	.	.
=79	=79	=79
!	!LO:S:s=1:note:problem:note-level slur	!
!	!LO:S:s=2:note:problem:note-level slur	!
!	!LO:S:s=3:note:problem:note-level slur	!
4C 4CC/	4cc) 4e-) 4c/)	.
4r	4r	.
4c 4G 4E- 4C\	4ccc 4gg 4ee- 4cc\	.
8.r	8.r	.
16C 16CC/	16c/	.
=80	=80	=80
1C 1CC;	1c;	.
==	==	==
*-	*-	*-
!!!system-decoration: {(s1,s2)}
!!!RDF**kern: > = above
!!!RDF**kern: < = below
!!!RDF**kern: N = linked
!!!ENC: Mateusz Solarz
!!!END: 2022-09-15
!!!ENC: Katarzyna Serwa
!!!END: 2022-10-25
!!!YEC: Copyright 2022 Narodowy Instytut Fryderyka Chopina (https://polishscores.org)
!!!YEM: License CC-BY-4.0 (https://creativecommons.org/licenses/by/4.0)
